X:8
T:Polonäs
T:ur Johan Erik Carlssons notbok (nr 8)
B:Johan Erik Carlssons notbok, nr 8
B:http://www.smus.se/earkiv/fmk/browselarge.php?lang=sw&katalogid=MMD+67&bildnr=00013
O:Snavlunda, Närke / Bona, Östergötland
R:Slängpolska
Z:Nils Liberg
N:Se även +
M:3/4
L:1/16
K:Am
a2ga f2ef d2cd | A2GA F2EF D4 | A,2C2 C2D2 D2E2 | D2F2 F2E2 E2D2 |S
a2ga f2ef d2cd | A2GA F2EF D4 | A,2C2 C2D2 D2E2 | F2E2 E4 !fine! D4 ::
e2fg a4 f4 | e2ge f4 c4 | e2ge f4 d4 | c2ec A4 !D.C.!A4 S||

